X:1
T:Title
%%score { ( 1 3 ) | 2 }
L:1/8
M:4/4
K:Bb
V:1 treble nm="Grand Piano"
V:3 treble 
V:2 bass 
V:1
 z4 z2[Q:1/4=100] F>F | [DB]2 [DB]2 [DB]2 [FB]>[DB] | c2 c2 c2 F>F | z4 z2 .d2 |[M:3/4] [Af]4 F2 | %5
[M:1/4] f>e |[M:4/4] z2 .e2 z4 | z2 .c2 z4 | [Ff]3 [Ge] [Fd]2 [Ec]2 |[M:3/4] [DB]4 [DB]2 | %10
[M:1/4] d>d |[M:4/4] d2 D2 D2 D>D | G2 G2 ^F2 D>D | G^FGA BABc |[M:3/4] d4 D2 |[M:1/4] D>D | %16
[M:4/4] [B,DG]2 [B,DG]2 [A,EF]2 E>E | B2 B2 A2 D>D | d3 c B2 [^FA]2 |[M:3/4] G4 G2 |[M:1/4] A>A | %21
[M:4/4] [DB]2 [DB]2 [DB]2 [FB]>[DB] | c2 c2 c2 F>F | z4 z2 .d2 |[M:3/4] [Af]4 F2 |[M:1/4] f>e | %26
[M:4/4] z2 .e2 z4 | z2 .c2 z4 | [Ff]3 [Ge] [Fd]2 [Ec]2 |[M:3/4] [DB]4 [DB]2 |] %30
V:2
 z4 z2 [F,A,E]>[F,A,E] | [B,,B,]2 [B,,F,]2 [B,,F,]2 [D,B,]>[B,,B,] | %2
 [F,A,F]2 [F,A,F]2 [F,A,F]2 F,>F, | [B,,F,]2 [B,,B,][K:treble][F,A,F] [B,F]2[K:bass] [G,C]2 | %4
[M:3/4] [F,C]4 [F,A,]2 |[M:1/4] [F,A,F]>[F,A,F] |[M:4/4] [B,F]2 [D,B,]2 [F,A,F]2 [F,A,F]>[F,A,E] | %7
 [B,,B,]2 [E,C]2 [F,CF]2 [F,A,]>[E,A,] | [D,B,]3 [E,B,] [F,B,]2 [F,A,]2 | %9
[M:3/4] [B,,F,]4 [B,,F,]2 |[M:1/4] D>D |[M:4/4] D2 D,2 D,2 D,>D, | %12
 [E,B,D]2 [E,G,_D]2 [D,A,=D]2 D,>D, | G,^F,G,A, B,A,B,C |[M:3/4] [D,,D,A,D^F]4 [D,,D,]2 | %15
[M:1/4] D,>D, |[M:4/4] G,,2 B,,2 D,2 [^F,A,]>[D,F,] | [G,B,D]2 [B,DG]2 [D^F]2[K:bass] D,>D, | %18
 [B,DB]3 [CEA] [DG]2[K:bass] [D,C]2 |[M:3/4] [G,B,]4 [G,B,]2 |[M:1/4] [F,CE]>[F,CE] | %21
[M:4/4] [B,,B,]2 [B,,F,]2 [B,,F,]2 [D,B,]>[B,,B,] | [F,A,F]2 [F,A,F]2 [F,A,F]2 F,>F, | %23
 [B,,F,]2 [B,,B,][K:treble][F,A,F] [B,F]2[K:bass] [G,C]2 |[M:3/4] [F,C]4 [F,A,]2 | %25
[M:1/4] [F,A,F]>[F,A,F] |[M:4/4] [B,F]2 [D,B,]2 [F,A,F]2 [F,A,F]>[F,A,E] | %27
 [B,,B,]2 [E,C]2 [F,CF]2 [F,A,]>[E,A,] | [D,B,]3 [E,B,] [F,B,]2 [F,A,]2 | %29
[M:3/4] [B,,F,]4 [B,,F,]2 |] %30
V:3
 x8 | x8 | x8 | [DB][CA][DB]c dcB-[B=e] |[M:3/4] x6 |[M:1/4] x2 |[M:4/4] dfF-[Fd] c2 d>c | %7
 [DB][Fd]G-[GB] A2 F>F | x8 |[M:3/4] x6 |[M:1/4] x2 |[M:4/4] x8 | x8 | x8 |[M:3/4] x6 |[M:1/4] x2 | %16
[M:4/4] x8 | x8 | x8 |[M:3/4] x6 |[M:1/4] x2 |[M:4/4] x8 | x8 | [DB][CA][DB]c dcB-[B=e] | %24
[M:3/4] x6 |[M:1/4] x2 |[M:4/4] dfF-[Fd] c2 d>c | [DB][Fd]G-[GB] A2 F>F | x8 |[M:3/4] x6 |] %30

